X: 20495
T: John L. Sullivan
R: reel
M: 4/4
K: Dmajor
|:D2 FD ADFA|defd BAFA|D2 FD ADFA|(3Bcd AF EGFE|
D2 FD ADFA|Adcd Bcde|fdec dBAF|d2 AF EFGE:|
|:dcdB AF F2|AFBF AFEF|dedB ADFD|BdAF egfe|
dedc B3c|BAGB ABde|(3fed ec dBAF|d2 AF EGFE:|

